X:1
T:What Will You Do with Jesus?
T:Mary L. Stocks
T:What Will You Do with Jesus?
T:Public Domain
T:Public Domain
C:Mary L. Stocks
Z:Public Domain
%%score ( 1 2 ) ( 3 4 )
L:1/8
M:6/8
K:D
V:1 treble 
V:2 treble 
V:3 bass 
V:4 bass 
V:1
 [DF][DF][DF] [DF][DF][DF] | [DG]2 [DF] [DF]3 | [Fd][Ec][DB] [DB][FA][EG] | [EG]2 [DF] [DF]3 | %4
w: 1.~Je- sus is stand- ing in|Pi- late’s hall,|Friend- less, for- sak- en, be-|trayed by all;|
w: 2.~Je- sus is stand- ing on|tri- al still,|You can be false to Him|if you will,|
w: 3.~Will you e- vade Him as|Pi- late tried?|Or will you choose Him, what-|e’er be- tide?|
w: 4.~Will you, like Pe- ter, your|Lord de- ny?|Or will you scorn from His|foes to fly,|
w: 5.~“Jes- us, I give Thee my|heart to- day!|Je- sus, I’ll fol- low Thee|all the way,|
 DDD FFF | A2 A d3 | [DF]>[EG][FA] [DA]2 [DB] | [CE]3 [DF]3 ||"^Refrain" [DF]>[EG][FA] [Fd]2 [GB] | %9
w: Heark- en! what mean- eth the|do with Je-||||
w: You can be faith- ful through|do with Je-||||
w: Vain- ly you strug- gle from|do with Je-||||
w: Dar- ing for Je- sus to|do with Je-||||
w: Glad- ly o- bey- ing Thee!”|do with Je-||||
 [FA]3 [DF]3 | [Fd][Fc][FB] [^Gc]2 [Gd] | [Ac-]3 [Gc]3 | [Fd][Fd][Fd] [Fc][Fc][Ec] | [DB]3 [Dd]3 | %14
w: |||||
w: |||||
w: |||||
w: |||||
w: |||||
 [DF]>[EG][DF] [CA]2 [CE] | [DF]6 |] %16
w: ||
w: ||
w: ||
w: ||
w: ||
V:2
 x6 | x6 | x6 | x6 | DDD FFF | A2 A d3 | x6 | x6 || x6 | x6 | x6 | x6 | x6 | x6 | x6 | x6 |] %16
w: ||||sud- den call? What will you|sus? * *|||||||||||
w: ||||good or ill: What will you|sus? * *|||||||||||
w: ||||Him to hide: What will you|sus? * *|||||||||||
w: ||||live or die? What will you|sus? * *|||||||||||
w: ||||will you say: “This I will|sus!” * *|||||||||||
V:3
 [D,A,][D,A,][D,A,] [D,A,][D,A,][D,^A,] | [D,B,]2 [D,A,] [D,A,]3 | %2
w: ~ ~ ~ ~ ~ ~|~ ~ ~|
 [B,,B,][B,,B,][B,,F,] [B,,F,][B,,B,][B,,B,] | [B,,B,]2 [B,,B,] [B,,B,]3 | D,D,D, F,F,F, | %5
w: ~ ~ ~ ~ ~ ~|~ ~ ~|~ ~ ~ ~ ~ ~|
 A,2 A, D3 | [D,A,]>[D,A,][D,D] [A,,F,]2 [A,,G,] | [A,,A,]3 [D,A,]3 || %8
w: ~ ~ ~|you do with Je- sus?|Neu- tral|
 [D,A,]>[D,A,][D,A,] [D,A,]2 [D,D] | [D,D]3 [D,A,]3 | B,[B,C][B,D] [E,E]2 [E,E] | [A,E]6 | %12
w: you can- not be; Some|day your|heart will be ask- ing,|will|
 B,B,B, [F,^A,][F,A,][F,A,] | [G,B,]3 [F,A,]3 | A,>A,[A,,A,] [A,,E,]2 [A,,A,] | [D,A,]6 |] %16
w: He do with me?” * *||||
V:4
 x6 | x6 | x6 | x6 | D,D,D, F,F,F, | A,2 A, D3 | x6 | x6 || x6 | x6 | B, x5 | x6 | B,B,B, x3 | x6 | %14
w: ||||~ ~ ~ ~ ~ ~|~ What will|||||“What||||
 A,3/2 x9/2 | x6 |] %16
w: ||

